public/img/css.svg

<svg width="87" height="87" viewBox="0 0 87 87" fill="none" xmlns="http://www.w3.org/2000/svg">
<path d="M15.196 11.3936H71.8004L66.6529 69.5168L43.4384 76.0853L20.3507 69.5132L15.196 11.3936ZM61.2625 23.2872L25.7375 23.2799L26.3102 30.3451L53.6029 30.3523L52.9177 37.6748H35.0175L35.6664 44.6094H52.3305L51.3445 54.1069L43.5 56.2747L35.5359 54.0888L35.0247 48.4012H27.9922L28.7752 58.7941L43.5 63.3797L57.9819 59.2581L61.2625 23.2872V23.2872Z" fill="#EEEEEE"/>
</svg>

<svg xmlns="http://www.w3.org/2000/svg" width="87" height="87" fill="none" xmlns:v="https://vecta.io/nano"><path d="M15.196 11.394H71.8l-5.147 58.123-23.214 6.569-23.088-6.572-5.155-58.12zm46.067 11.894l-35.525-.007.573 7.065 27.293.007-.685 7.322h-17.9l.649 6.935h16.664l-.986 9.498-7.844 2.168-7.964-2.186-.511-5.688h-7.033l.783 10.393L43.5 63.38l14.482-4.122 3.281-35.971h0z" fill="#eee"/></svg>
